X:95
C:Page 46
T:Seven Stars. MBe.95
S:Matthew Betham MS, Towcett Cumbria, 1815
O:England;Cumbria;Towcett
Z:VMP – Hugh Taylor, 2012
T:Moon and Seven Stars. MBe.95, The
M:6/8
L:1/8
Q:3/8=100
R:.Jig
N:NB-This note was written as a crotchet, and I’ve changed it to a dotted crotchet
K:D
d2 A A2 F|GAB A3|Bcd efg|fed cBA|
d2 A A2 F|GAB A3|Bcd efg|ABc “^NB”d3:|
|:e2 A A2 f|efa ~f3|efg fed|cde A3|
BGB AFA|BGB AFA|Bcd cde|Adc d3:|

